src/images/user3.svg

<svg width="170" height="169" viewBox="0 0 170 169" xmlns="http://www.w3.org/2000/svg"><title>Imported Layers</title><g fill="none" fill-rule="evenodd"><path d="M108.526 116.471c-6.277 3.884-13.918 6.172-22.168 6.172-8.029 0-15.485-2.16-21.665-5.856a51.54 51.54 0 0 0-17.598 13.907 64.191 64.191 0 0 0 39.864 13.8c15.049 0 28.894-5.157 39.863-13.8a51.515 51.515 0 0 0-18.296-14.223" fill="#E7EBEB"/><path d="M169.599 84.594c0-46.512-37.841-84.352-84.352-84.352C38.735.242.894 38.082.894 84.594c0 26.843 12.62 50.78 32.221 66.239l-.031.101 1.974 1.463c12.179 9.029 26.274 14.493 41.193 16.064.287.03.575.057.864.085 1.034.098 2.073.177 3.115.238.343.02.685.044 1.029.061 1.325.061 2.653.101 3.988.101 1.358 0 2.709-.04 4.056-.103.318-.015.635-.04.952-.059a83.261 83.261 0 0 0 3.988-.323c15.708-1.646 30.44-7.589 43.03-17.466l1.933-1.517-.027-.085c18.574-15.485 30.42-38.782 30.42-64.799zm-76.215 76.921l-.568.056a77.9 77.9 0 0 1-3.035.231c-.288.017-.574.037-.862.051a78.484 78.484 0 0 1-3.672.093c-1.214 0-2.419-.037-3.618-.092-.301-.014-.601-.033-.901-.051a77.818 77.818 0 0 1-2.995-.228c-.195-.019-.391-.035-.586-.055-13.225-1.383-25.461-6.12-35.86-13.33 4.023-11.192 12.109-20.285 22.242-25.816a49.039 49.039 0 0 0 21.718 5.053 49.06 49.06 0 0 0 22.933-5.668 47.722 47.722 0 0 1 22.753 25.201c-10.75 7.897-23.6 13.09-37.549 14.555zM42.935 78.056c0-.369.019-.733.028-1.099-.024-.008-.058-.013-.078-.022.588-22.812 19.274-41.198 42.206-41.282.502.003 1.004.01 1.503.031h.007c2.227.089 4.417.356 6.554.783 17.454 3.291 31.123 17.284 33.917 34.908l.032-.015c.346 2.177.531 4.406.531 6.679 0 23.373-19.015 42.388-42.388 42.388-21.167 0-38.758-15.594-41.892-35.896.019.006.052.009.076.015a42.598 42.598 0 0 1-.496-6.49zm93.667 64.315a54.702 54.702 0 0 0-21.705-24.862c11.978-9.02 19.738-23.355 19.738-39.47 0-26.653-21.224-48.429-47.657-49.346h-.016c-.571-.02-1.14-.044-1.715-.044-.054 0-.107.004-.16.004-.064 0-.128-.004-.193-.004-15.513 0-29.781 7.107-39.145 19.499-6.471 8.563-9.892 18.778-9.892 29.538 0 .072.004.143.004.215 0 .046-.004.091-.004.138 0 .213.014.423.016.636.005.208.004.418.011.626l.026.83c.008.171.008.344.017.514l.024.749.035.017c1.031 15.212 8.979 28.557 20.716 36.904-9.364 6.04-16.896 14.854-21.205 25.448-16.862-14.201-27.603-35.45-27.603-59.169 0-42.652 34.701-77.352 77.353-77.352 42.651 0 77.352 34.7 77.352 77.352 0 22.956-10.063 43.598-25.997 57.777z" fill="#D6D8D8"/></g></svg>

<?xml version="1.0" encoding="UTF-8" standalone="no"?>
<svg width="170px" height="169px" viewBox="0 0 170 169" version="1.1" xmlns="http://www.w3.org/2000/svg" xmlns:xlink="http://www.w3.org/1999/xlink" xmlns:sketch="http://www.bohemiancoding.com/sketch/ns">
    <!-- Generator: Sketch 3.3.2 (12043) - http://www.bohemiancoding.com/sketch -->
    <title>Imported Layers</title>
    <desc>Created with Sketch.</desc>
    <defs></defs>
    <g id="Page-1" stroke="none" stroke-width="1" fill="none" fill-rule="evenodd" sketch:type="MSPage">
        <g id="Imported-Layers" sketch:type="MSLayerGroup">
            <path d="M108.526,116.471 C102.249,120.355 94.608,122.643 86.358,122.643 C78.329,122.643 70.873,120.483 64.693,116.787 C57.846,120.087 51.841,124.857 47.095,130.694 C58.065,139.337 71.91,144.494 86.959,144.494 C102.008,144.494 115.853,139.337 126.822,130.694 C121.917,124.661 115.661,119.779 108.526,116.471" id="Fill-1" fill="#E7EBEB" sketch:type="MSShapeGroup"></path>
            <path d="M169.599,84.594 C169.599,38.082 131.758,0.242 85.247,0.242 C38.735,0.242 0.894,38.082 0.894,84.594 C0.894,111.437 13.514,135.374 33.115,150.833 L33.084,150.934 L35.058,152.397 C47.237,161.426 61.332,166.89 76.251,168.461 C76.538,168.491 76.826,168.518 77.115,168.546 C78.149,168.644 79.188,168.723 80.23,168.784 C80.573,168.804 80.915,168.828 81.259,168.845 C82.584,168.906 83.912,168.946 85.247,168.946 C86.605,168.946 87.956,168.906 89.303,168.843 C89.621,168.828 89.938,168.803 90.255,168.784 C91.343,168.722 92.427,168.64 93.506,168.536 C93.752,168.512 93.997,168.487 94.243,168.461 C109.951,166.815 124.683,160.872 137.273,150.995 L139.206,149.478 L139.179,149.393 C157.753,133.908 169.599,110.611 169.599,84.594 L169.599,84.594 Z M93.384,161.515 C93.195,161.534 93.005,161.553 92.816,161.571 C91.81,161.669 90.797,161.743 89.781,161.802 C89.493,161.819 89.207,161.839 88.919,161.853 C87.701,161.91 86.478,161.946 85.247,161.946 C84.033,161.946 82.828,161.909 81.629,161.854 C81.328,161.84 81.028,161.821 80.728,161.803 C79.725,161.745 78.726,161.671 77.733,161.575 C77.538,161.556 77.342,161.54 77.147,161.52 C63.922,160.137 51.686,155.4 41.287,148.19 C45.31,136.998 53.396,127.905 63.529,122.374 C70.087,125.602 77.455,127.427 85.247,127.427 C93.521,127.427 101.322,125.372 108.18,121.759 C118.4,126.991 126.603,135.831 130.933,146.96 C120.183,154.857 107.333,160.05 93.384,161.515 L93.384,161.515 Z M42.935,78.056 C42.935,77.687 42.954,77.323 42.963,76.957 C42.939,76.949 42.905,76.944 42.885,76.935 C43.473,54.123 62.159,35.737 85.091,35.653 C85.593,35.656 86.095,35.663 86.594,35.684 L86.601,35.684 C88.828,35.773 91.018,36.04 93.155,36.467 C110.609,39.758 124.278,53.751 127.072,71.375 C127.082,71.37 127.095,71.365 127.104,71.36 C127.45,73.537 127.635,75.766 127.635,78.039 C127.635,101.412 108.62,120.427 85.247,120.427 C64.08,120.427 46.489,104.833 43.355,84.531 C43.374,84.537 43.407,84.54 43.431,84.546 C43.105,82.43 42.935,80.263 42.935,78.056 L42.935,78.056 Z M136.602,142.371 C132.016,131.856 124.353,123.27 114.897,117.509 C126.875,108.489 134.635,94.154 134.635,78.039 C134.635,51.386 113.411,29.61 86.978,28.693 L86.962,28.693 C86.391,28.673 85.822,28.649 85.247,28.649 C85.193,28.649 85.14,28.653 85.087,28.653 C85.023,28.653 84.959,28.649 84.894,28.649 C69.381,28.649 55.113,35.756 45.749,48.148 C39.278,56.711 35.857,66.926 35.857,77.686 C35.857,77.758 35.861,77.829 35.861,77.901 C35.861,77.947 35.857,77.992 35.857,78.039 C35.857,78.252 35.871,78.462 35.873,78.675 C35.878,78.883 35.877,79.093 35.884,79.301 L35.91,80.131 C35.918,80.302 35.918,80.475 35.927,80.645 L35.951,81.394 L35.986,81.411 C37.017,96.623 44.965,109.968 56.702,118.315 C47.338,124.355 39.806,133.169 35.497,143.763 C18.635,129.562 7.894,108.313 7.894,84.594 C7.894,41.942 42.595,7.242 85.247,7.242 C127.898,7.242 162.599,41.942 162.599,84.594 C162.599,107.55 152.536,128.192 136.602,142.371 L136.602,142.371 Z" id="Fill-2" fill="#D6D8D8" sketch:type="MSShapeGroup"></path>
        </g>
    </g>
</svg>
